X:6
T:Reel 6
M:4/4
K:Dmaj
L:1/8
AG|FEFG AFDc|BAGB AGFD|FEFG A3g|fdec dcAG|FEFG AFDc|BAGB AGFD|FEFG A3g|fdec d2|de|fdd2 edcd|fgfd ecA2|fdec fded|cABc d2de|fdeg fdec|BAFE D3g|fdec dcBA|BGEF D2|
